X:269
T:Hornpipe TS.269
M:C|
L:1/8
Q:1/2=84
S:Thomas Sands’ MS,1810,Lincolnshire
R:.hornpipe
O:England;Lincolnshire
C:In different hand C
C:untitled in MS
Z:vmp.Ruairidh Greig, 2011
K:G
Bc|dBGB cAFA|GDB,D CA,DC|B,DGB cBAG|(3FGA (3GFE D2Bc|
dBGB cAFA|GBdf gfgb|(3baf (3age (3gfd (3fec|d2d2d2:|
|:B2|cfag fedc|Bdgf edcB|Acfe dcBA|GBed cBAG|
FGAB cdef|gdeB cEcA|GFAF DCA,B,|G,B,DGG,2:|]

